app/images/icons/partner-icon.svg

<?xml version="1.0" encoding="UTF-8" standalone="no"?>
<svg width="56px" height="76px" viewBox="0 0 56 76" version="1.1" xmlns="http://www.w3.org/2000/svg" xmlns:xlink="http://www.w3.org/1999/xlink" xmlns:sketch="http://www.bohemiancoding.com/sketch/ns">
    <!-- Generator: Sketch 3.1 (8751) - http://www.bohemiancoding.com/sketch -->
    <title>Fill 1687 + Fill 1688 + Fill 1689</title>
    <desc>Created with Sketch.</desc>
    <defs></defs>
    <g id="Page-1" stroke="none" stroke-width="1" fill="none" fill-rule="evenodd" sketch:type="MSPage">
        <g id="Fill-1687-+-Fill-1688-+-Fill-1689" sketch:type="MSLayerGroup" fill="#1B1A19">
            <path d="M2.54545455,63.3320667 L53.4558182,63.3320667 L53.4558182,73.4654 L2.54545455,73.4654 L2.54545455,63.3320667 Z M22.9090909,51.3240667 C24.2938182,52.0080667 25.8261818,52.402 27.4476364,52.402 C28.5243636,52.402 29.5629091,52.2246667 30.5454545,51.9067333 L30.5454545,55.4926667 L41.5430909,57.7207333 C42.5867273,58.026 43.694,58.9506667 43.6812727,60.344 L43.6812727,60.8 L11.2101818,60.8 L11.2178182,60.3174 C11.2178182,59.1900667 12.1354545,58.0627333 13.2974545,57.7334 L22.9090909,55.4660667 L22.9090909,51.3240667 L22.9090909,51.3240667 Z M19.488,37.8974 C20.5647273,34.1860667 23.7236364,31.502 27.4476364,31.502 C31.3141818,31.502 34.5685455,34.4014 35.5103636,38.3280667 C34.9758182,38.57 34.1867273,38.7207333 33.2449091,38.5814 C32.5958182,38.4800667 31.0010909,38.1000667 30.1725455,36.5674 C29.9829091,36.2127333 29.6354545,35.9720667 29.2370909,35.91 C28.8412727,35.8454 28.4365455,35.986 28.1514545,36.2634 C25.5945455,38.8094 21.7089091,38.8980667 19.488,37.8974 L19.488,37.8974 Z M19.1023636,40.4434 C21.9672727,41.4567333 25.8796364,41.1527333 28.826,39.0120667 C29.8416364,40.1140667 31.2543636,40.85 32.872,41.0894 C33.2449091,41.1400667 33.614,41.1666667 33.9703636,41.1666667 C34.6194545,41.1666667 35.2303636,41.0640667 35.7903636,40.9006667 C35.6885455,45.8647333 31.9861818,49.8674 27.4476364,49.8674 C22.8403636,49.8674 19.0909091,45.7380667 19.0909091,40.6840667 C19.0909091,40.5954 19.0998182,40.5194 19.1023636,40.4434 L19.1023636,40.4434 Z M17.8181818,15.5280667 L17.8181818,24.0666667 C17.8181818,24.7620667 18.3883636,25.3320667 19.0909091,25.3320667 L34.3649091,25.3320667 C35.0649091,25.3320667 35.6376364,24.7620667 35.6376364,24.0666667 L35.6376364,15.5280667 L53.4558182,15.5280667 L53.4558182,60.8 L46.2267273,60.8 L46.2267273,60.344 C46.2521818,58.0374 44.6103636,55.9613333 42.1412727,55.2634 L33.0921818,53.428 L33.0921818,50.6780667 C36.2358182,48.6260667 38.3485455,44.9147333 38.3485455,40.6840667 C38.3485455,34.2240667 33.4612727,28.9674 27.4476364,28.9674 C21.4365455,28.9674 16.5454545,34.2240667 16.5454545,40.6840667 C16.5454545,44.2307333 18.0307273,47.4227333 20.3636364,49.5634 L20.3636364,53.4647333 L12.6547273,55.2887333 C10.3472727,55.9474 8.67236364,58.0627333 8.67236364,60.3047333 L8.66345455,60.8 L2.54545455,60.8 L2.54545455,15.5280667 L17.8181818,15.5280667 L17.8181818,15.5280667 Z M20.3636364,8.86666667 C20.3636364,4.7614 21.378,2.53206667 26.7272727,2.53206667 C32.0765455,2.53206667 33.0921818,4.7614 33.0921818,8.86666667 L33.0921818,22.8 L20.3636364,22.8 L20.3636364,8.86666667 L20.3636364,8.86666667 Z M54.7285455,12.9947333 L35.6376364,12.9947333 L35.6376364,8.86666667 C35.6376364,4.73606667 34.6194545,0 26.7272727,0 C18.8312727,0 17.8181818,4.73606667 17.8181818,8.86666667 L17.8181818,12.9947333 L1.27272727,12.9947333 C0.570181818,12.9947333 0,13.5647333 0,14.2614 L0,74.7320667 C0,75.4287333 0.570181818,76 1.27272727,76 L54.7285455,76 C55.4285455,76 56.0012727,75.4287333 56.0012727,74.7320667 L56.0012727,14.2614 C56.0012727,13.5647333 55.4285455,12.9947333 54.7285455,12.9947333 L54.7285455,12.9947333 Z" id="Fill-1687" sketch:type="MSShapeGroup"></path>
            <path d="M26.7272727,10.1320667 C26.026,10.1320667 25.4545455,9.56206667 25.4545455,8.86666667 C25.4545455,8.17 26.026,7.6 26.7272727,7.6 C27.4298182,7.6 28,8.17 28,8.86666667 C28,9.56206667 27.4298182,10.1320667 26.7272727,10.1320667 L26.7272727,10.1320667 Z M26.7272727,5.06666667 C24.6221818,5.06666667 22.9090909,6.76273333 22.9090909,8.86666667 C22.9090909,10.9554 24.6221818,12.6666667 26.7272727,12.6666667 C28.8336364,12.6666667 30.5454545,10.9554 30.5454545,8.86666667 C30.5454545,6.76273333 28.8336364,5.06666667 26.7272727,5.06666667 L26.7272727,5.06666667 Z" id="Fill-1688" sketch:type="MSShapeGroup"></path>
            <path d="M34.3636364,68.4 L47.0909091,68.4 L47.0909091,70.9333333 L34.3636364,70.9333333 L34.3636364,68.4 Z" id="Fill-1689" sketch:type="MSShapeGroup"></path>
        </g>
    </g>
</svg>

<svg width="56" height="76" viewBox="0 0 56 76" xmlns="http://www.w3.org/2000/svg">
    <desc>
        Created with Sketch.
    </desc>
    <g fill="#1B1A19">
        <path d="M2.545 63.332h50.91v10.133H2.546V63.332zM22.91 51.324c1.384.684 2.916 1.078 4.538 1.078 1.076 0 2.115-.177 3.097-.495v3.586l10.998 2.228c1.044.306 2.15 1.23 2.138 2.624v.456H11.21l.008-.483c0-1.127.917-2.254 2.08-2.584l9.61-2.267v-4.142zm-3.422-13.427c1.077-3.71 4.236-6.395 7.96-6.395 3.866 0 7.12 2.9 8.062 6.826-.534.242-1.323.393-2.265.253-.65-.1-2.244-.48-3.072-2.013-.19-.354-.538-.595-.936-.657-.396-.065-.8.076-1.086.353-2.555 2.546-6.44 2.635-8.662 1.634zm-.386 2.546c2.865 1.014 6.778.71 9.724-1.43 1.016 1.1 2.428 1.837 4.046 2.076.373.05.742.077 1.098.077.65 0 1.26-.103 1.82-.266-.1 4.965-3.804 8.967-8.342 8.967-4.608 0-8.357-4.13-8.357-9.183 0-.09.01-.165.012-.24zm-1.284-24.915v8.54c0 .694.57 1.264 1.273 1.264h15.275c.7 0 1.273-.57 1.273-1.265v-8.54h17.818V60.8h-7.23v-.456c.026-2.307-1.616-4.383-4.085-5.08l-9.048-1.836v-2.75c3.144-2.052 5.257-5.763 5.257-9.994 0-6.46-4.89-11.717-10.902-11.717-6.01 0-10.903 5.257-10.903 11.717 0 3.547 1.486 6.74 3.82 8.88v3.9l-7.71 1.825c-2.308.657-3.983 2.773-3.983 5.015l-.01.495H2.546V15.528h15.273zm2.546-6.66c0-4.107 1.014-6.336 6.363-6.336 5.35 0 6.365 2.23 6.365 6.335V22.8H20.364V8.867zm34.365 4.127H35.637V8.867c0-4.13-1.02-8.867-8.91-8.867-7.897 0-8.91 4.736-8.91 8.867v4.128H1.273C.57 12.995 0 13.565 0 14.26v60.472C0 75.43.57 76 1.273 76H54.73c.7 0 1.27-.57 1.27-1.268v-60.47c0-.697-.57-1.267-1.27-1.267z"/>
        <path d="M26.727 10.132c-.7 0-1.272-.57-1.272-1.265 0-.697.57-1.267 1.272-1.267.703 0 1.273.57 1.273 1.267 0 .695-.57 1.265-1.273 1.265zm0-5.065c-2.105 0-3.818 1.696-3.818 3.8 0 2.088 1.712 3.8 3.817 3.8 2.107 0 3.818-1.712 3.818-3.8 0-2.104-1.71-3.8-3.818-3.8z"/>
        <path d="M34.364 68.4H47.09v2.533H34.365V68.4z"/>
    </g>
</svg>
